images/UPX.svg

<svg height="250" viewBox="0 0 250 250" width="250" xmlns="http://www.w3.org/2000/svg" xmlns:xlink="http://www.w3.org/1999/xlink"><linearGradient id="a" gradientUnits="userSpaceOnUse" x1="48.67499875" x2="244.69999375" y1="182.6000025" y2="-32"><stop offset="0" stop-color="#ad7c00"/><stop offset=".09" stop-color="#b08108"/><stop offset=".24" stop-color="#ba8f1c"/><stop offset=".41" stop-color="#c8a63e"/><stop offset=".51" stop-color="#d3b656"/><stop offset=".7" stop-color="#d4b859"/><stop offset=".83" stop-color="#d9bf62"/><stop offset=".95" stop-color="#e0cb72"/><stop offset="1" stop-color="#e5d37c"/></linearGradient><path d="m177.789062 14.460938c-39.59375-.003907-71.695312 32.085937-71.703124 71.675781 0 .527343-.160157 83.113281-.160157 83.113281-1.777343 23-13.261719 35.382812-34.464843 37.148438-21.808594-1.199219-33.59375-13.582032-35.359376-37.148438v-79.574219c-.589843-11.1875-6.25-17.101562-16.777343-17.664062-10.574219.5625-16.222657 6.476562-16.824219 17.664062v81.347657c3.515625 40.078124 26.503906 61.582031 68.960938 64.515624 41.84375-2.933593 64.539062-24.4375 68.089843-64.515624v-85.472657c.328125-21.046875 17.601563-37.871093 38.648438-37.648437s37.957031 17.40625 37.84375 38.453125c-.109375 21.046875-17.207031 38.046875-38.253907 38.042969h-3.488281c-8.625.75-15.246093 7.96875-15.246093 16.625 0 8.660156 6.621093 15.878906 15.246093 16.625 0 0 3.085938.164062 3.488281.164062 25.832032.339844 49.851563-13.246094 62.871094-35.566406 13.015625-22.316406 13.015625-49.914063 0-72.230469-13.019531-22.320313-37.039062-35.90625-62.871094-35.566406zm0 0" fill="url(#a)"/></svg>

<svg xmlns="http://www.w3.org/2000/svg" xmlns:xlink="http://www.w3.org/1999/xlink" width="250px" height="250px" viewBox="0 0 250 250" version="1.1">
<defs>
<linearGradient id="linear0" gradientUnits="userSpaceOnUse" x1="38.939999" y1="146.080002" x2="195.759995" y2="-25.6" gradientTransform="matrix(1.25,0,0,1.25,0,0)">
<stop offset="0" style="stop-color:rgb(67.843139%,48.627451%,0%);stop-opacity:1;"/>
<stop offset="0.09" style="stop-color:rgb(69.01961%,50.588238%,3.137255%);stop-opacity:1;"/>
<stop offset="0.24" style="stop-color:rgb(72.941178%,56.078434%,10.980392%);stop-opacity:1;"/>
<stop offset="0.41" style="stop-color:rgb(78.431374%,65.098041%,24.313726%);stop-opacity:1;"/>
<stop offset="0.51" style="stop-color:rgb(82.745099%,71.372551%,33.725491%);stop-opacity:1;"/>
<stop offset="0.7" style="stop-color:rgb(83.137256%,72.156864%,34.901962%);stop-opacity:1;"/>
<stop offset="0.83" style="stop-color:rgb(85.09804%,74.901962%,38.431373%);stop-opacity:1;"/>
<stop offset="0.95" style="stop-color:rgb(87.843138%,79.607844%,44.705883%);stop-opacity:1;"/>
<stop offset="1" style="stop-color:rgb(89.803922%,82.745099%,48.627451%);stop-opacity:1;"/>
</linearGradient>
</defs>
<g id="surface1">
<path style=" stroke:none;fill-rule:nonzero;fill:url(#linear0);" d="M 177.789062 14.460938 C 138.195312 14.457031 106.09375 46.546875 106.085938 86.136719 C 106.085938 86.664062 105.925781 169.25 105.925781 169.25 C 104.148438 192.25 92.664062 204.632812 71.460938 206.398438 C 49.652344 205.199219 37.867188 192.816406 36.101562 169.25 L 36.101562 89.675781 C 35.511719 78.488281 29.851562 72.574219 19.324219 72.011719 C 8.75 72.574219 3.101562 78.488281 2.5 89.675781 L 2.5 171.023438 C 6.015625 211.101562 29.003906 232.605469 71.460938 235.539062 C 113.304688 232.605469 136 211.101562 139.550781 171.023438 L 139.550781 85.550781 C 139.878906 64.503906 157.152344 47.679688 178.199219 47.902344 C 199.246094 48.125 216.15625 65.308594 216.042969 86.355469 C 215.933594 107.402344 198.835938 124.402344 177.789062 124.398438 L 174.300781 124.398438 C 165.675781 125.148438 159.054688 132.367188 159.054688 141.023438 C 159.054688 149.683594 165.675781 156.902344 174.300781 157.648438 C 174.300781 157.648438 177.386719 157.8125 177.789062 157.8125 C 203.621094 158.152344 227.640625 144.566406 240.660156 122.246094 C 253.675781 99.929688 253.675781 72.332031 240.660156 50.015625 C 227.640625 27.695312 203.621094 14.109375 177.789062 14.449219 Z M 177.789062 14.460938 "/>
</g>
</svg>
